packages/design-system/src/icons/assets/logo_main.svg

<svg width="98" height="30" viewBox="0 0 98 30" fill="none" xmlns="http://www.w3.org/2000/svg">
<path fill-rule="evenodd" clip-rule="evenodd" d="M16.5464 5.57493L13.5911 8.53744V4.41187H8.27141V8.53744L5.41091 5.67002L1.64555 9.43716L4.42578 12.2241H0.470703V14.66H8.46114C8.97194 14.66 9.48274 14.5356 9.88409 14.2138C10.8984 13.4091 11.0735 11.8584 11.0735 8.88123C11.0735 11.8584 11.2487 13.4091 12.263 14.2138C12.6643 14.5283 13.1824 14.66 13.6859 14.66H21.6399V12.29L21.5742 12.2241H17.4294L20.3045 9.34207L16.5391 5.56761L16.5464 5.57493ZM21.6472 15.3329H13.8611C13.5181 15.3329 13.1678 15.3988 12.854 15.5377C11.3143 16.2327 11.0808 17.7249 11.0808 21.1994C11.0808 18.9903 10.7598 17.4835 10.2344 16.5399C9.80382 15.7718 8.96464 15.3329 8.08168 15.3329H0.470703V17.564H4.58632L1.66015 20.4972L5.4255 24.2717L8.27141 21.4189V25.5883H13.5911V21.4189L16.6121 24.4472H16.6267L20.3775 20.6801L17.2762 17.5713H21.6472V15.3402V15.3329Z" fill="#B5F602"/>
<path d="M31.1075 23.0858C29.3792 23.0858 27.9339 22.5046 26.7716 21.3423C25.6245 20.1799 25.051 18.7423 25.051 17.0294C25.051 15.3164 25.6245 13.8788 26.7716 12.7164C27.9339 11.5541 29.3792 10.9729 31.1075 10.9729C32.2239 10.9729 33.241 11.2405 34.1587 11.7758C35.0763 12.3111 35.7722 13.0299 36.2463 13.9323L33.6998 15.4235C33.4704 14.9494 33.1187 14.5746 32.6445 14.2994C32.1857 14.0241 31.6657 13.8864 31.0845 13.8864C30.1975 13.8864 29.4634 14.1846 28.8822 14.7811C28.301 15.3623 28.0104 16.1117 28.0104 17.0294C28.0104 17.9317 28.301 18.6811 28.8822 19.2776C29.4634 19.8588 30.1975 20.1494 31.0845 20.1494C31.681 20.1494 32.2087 20.0194 32.6675 19.7594C33.1416 19.4841 33.4934 19.1094 33.7228 18.6352L36.2922 20.1035C35.7875 21.0058 35.0763 21.7323 34.1587 22.2829C33.241 22.8182 32.2239 23.0858 31.1075 23.0858ZM47.2217 21.3423C46.044 22.5046 44.6064 23.0858 42.9087 23.0858C41.2111 23.0858 39.7734 22.5046 38.5958 21.3423C37.4334 20.1646 36.8523 18.727 36.8523 17.0294C36.8523 15.3317 37.4334 13.9017 38.5958 12.7394C39.7734 11.5617 41.2111 10.9729 42.9087 10.9729C44.6064 10.9729 46.044 11.5617 47.2217 12.7394C48.3993 13.9017 48.9882 15.3317 48.9882 17.0294C48.9882 18.727 48.3993 20.1646 47.2217 21.3423ZM40.6834 19.3005C41.2799 19.897 42.0217 20.1952 42.9087 20.1952C43.7958 20.1952 44.5376 19.897 45.134 19.3005C45.7305 18.7041 46.0287 17.947 46.0287 17.0294C46.0287 16.1117 45.7305 15.3546 45.134 14.7582C44.5376 14.1617 43.7958 13.8635 42.9087 13.8635C42.0217 13.8635 41.2799 14.1617 40.6834 14.7582C40.1023 15.3546 39.8117 16.1117 39.8117 17.0294C39.8117 17.947 40.1023 18.7041 40.6834 19.3005ZM57.2183 10.9729C58.4724 10.9729 59.5048 11.3935 60.3154 12.2346C61.1412 13.0758 61.5542 14.2382 61.5542 15.7217V22.7646H58.5948V16.0888C58.5948 15.3241 58.3883 14.7429 57.9754 14.3452C57.5624 13.9323 57.0118 13.7258 56.3236 13.7258C55.5589 13.7258 54.9471 13.9629 54.4883 14.437C54.0295 14.9111 53.8001 15.6223 53.8001 16.5705V22.7646H50.8407V11.2941H53.8001V12.5788C54.5189 11.5082 55.6583 10.9729 57.2183 10.9729ZM69.7935 9.22935C68.1723 9.107 67.3617 9.757 67.3617 11.1794V11.2941H69.7935V14.1388H67.3617V22.7646H64.4023V14.1388H62.7505V11.2941H64.4023V11.1794C64.4023 9.55818 64.8535 8.327 65.7558 7.48582C66.6582 6.64465 68.0041 6.27759 69.7935 6.38465V9.22935ZM73.6836 18.2452C74.0813 19.6829 75.1595 20.4017 76.9183 20.4017C78.0501 20.4017 78.9066 20.0194 79.4877 19.2546L81.8736 20.6311C80.7418 22.2676 79.0748 23.0858 76.8724 23.0858C74.976 23.0858 73.4542 22.5123 72.3071 21.3652C71.1601 20.2182 70.5866 18.7729 70.5866 17.0294C70.5866 15.3011 71.1524 13.8635 72.2842 12.7164C73.416 11.5541 74.8689 10.9729 76.643 10.9729C78.3254 10.9729 79.7095 11.5541 80.7954 12.7164C81.8966 13.8788 82.4471 15.3164 82.4471 17.0294C82.4471 17.4117 82.4089 17.817 82.3324 18.2452H73.6836ZM73.6377 15.9511H79.4877C79.3195 15.1711 78.9677 14.5899 78.4324 14.2076C77.9124 13.8252 77.316 13.6341 76.643 13.6341C75.8477 13.6341 75.1901 13.8405 74.6701 14.2535C74.1501 14.6511 73.806 15.217 73.6377 15.9511ZM90.7382 14.1388H88.1459V18.9105C88.1459 19.3082 88.2453 19.5988 88.4441 19.7823C88.6429 19.9658 88.9335 20.0729 89.3159 20.1035C89.6982 20.1188 90.1723 20.1111 90.7382 20.0805V22.7646C88.7041 22.9941 87.2665 22.8029 86.4253 22.1911C85.5994 21.5794 85.1865 20.4858 85.1865 18.9105V14.1388H83.1906V11.2941H85.1865V8.977L88.1459 8.08229V11.2941H90.7382V14.1388ZM94.293 9.91759C93.8036 9.91759 93.3754 9.74171 93.0083 9.38994C92.6566 9.02288 92.4807 8.59465 92.4807 8.10523C92.4807 7.61582 92.6566 7.18759 93.0083 6.82053C93.3754 6.45347 93.8036 6.26994 94.293 6.26994C94.7977 6.26994 95.226 6.45347 95.5777 6.82053C95.9448 7.18759 96.1283 7.61582 96.1283 8.10523C96.1283 8.59465 95.9448 9.02288 95.5777 9.38994C95.226 9.74171 94.7977 9.91759 94.293 9.91759ZM92.8248 22.7646V11.2941H95.7842V22.7646H92.8248Z" fill="#121212"/>
</svg>

<svg xmlns="http://www.w3.org/2000/svg" width="98" height="30" fill="none"><path fill="#B5F602" fill-rule="evenodd" d="m16.546 5.575-2.955 2.962V4.412h-5.32v4.125L5.411 5.67 1.646 9.437l2.78 2.787H.47v2.436h7.99c.51 0 1.022-.124 1.423-.446 1.014-.805 1.19-2.356 1.19-5.333 0 2.977.175 4.528 1.189 5.333.401.314.92.446 1.423.446h7.954v-2.37l-.066-.066H17.43l2.876-2.882-3.766-3.774zm5.101 9.758h-7.786c-.343 0-.693.066-1.007.205-1.54.695-1.773 2.187-1.773 5.661 0-2.209-.321-3.716-.847-4.66-.43-.767-1.27-1.206-2.152-1.206H.47v2.231h4.115L1.66 20.497l3.766 3.775 2.845-2.853v4.17h5.32v-4.17l3.021 3.028h.015l3.75-3.767-3.1-3.109h4.37z" clip-rule="evenodd"/><path fill="#121212" d="M31.108 23.086q-2.593 0-4.336-1.744-1.72-1.743-1.721-4.313 0-2.569 1.72-4.313 1.744-1.743 4.337-1.743 1.674 0 3.05.803 1.377.803 2.088 2.156L33.7 15.424a2.6 2.6 0 0 0-1.056-1.125 2.97 2.97 0 0 0-1.56-.413q-1.329 0-2.202.895-.872.871-.872 2.248 0 1.354.872 2.249.872.87 2.202.871.896 0 1.583-.39.712-.413 1.056-1.124l2.57 1.468a5.83 5.83 0 0 1-2.134 2.18q-1.377.803-3.051.803m16.114-1.744q-1.767 1.744-4.313 1.744-2.547 0-4.313-1.744-1.744-1.766-1.744-4.313 0-2.545 1.744-4.29 1.766-1.766 4.313-1.766t4.313 1.766q1.766 1.745 1.766 4.29 0 2.547-1.766 4.313m-6.539-2.041q.895.894 2.226.894t2.225-.895q.895-.894.895-2.27 0-1.377-.895-2.272-.894-.894-2.225-.894t-2.226.894q-.87.896-.871 2.271 0 1.377.871 2.271m16.535-8.328q1.881 0 3.097 1.262 1.24 1.26 1.24 3.487v7.043h-2.96v-6.676q0-1.147-.62-1.744-.62-.62-1.651-.62-1.148 0-1.836.712-.688.711-.688 2.133v6.195h-2.96v-11.47h2.96v1.284q1.078-1.606 3.418-1.606m12.575-1.744q-2.43-.183-2.431 1.95v.115h2.432v2.845h-2.432v8.626h-2.96v-8.626h-1.651v-2.845h1.651v-.115q0-2.43 1.354-3.693 1.353-1.261 4.037-1.101zm3.89 9.016q.597 2.157 3.235 2.157 1.698 0 2.57-1.147l2.386 1.376q-1.699 2.455-5.002 2.455-2.844 0-4.565-1.72-1.72-1.721-1.72-4.337 0-2.591 1.697-4.313 1.698-1.743 4.359-1.743 2.524 0 4.152 1.743 1.653 1.744 1.652 4.313 0 .574-.115 1.216zm-.045-2.294h5.85q-.252-1.17-1.056-1.743a2.94 2.94 0 0 0-1.789-.574q-1.193 0-1.973.62-.78.596-1.032 1.697m17.1-1.812h-2.592v4.772q0 .596.298.871.299.275.872.322.573.022 1.422-.023v2.684q-3.051.345-4.313-.574-1.239-.918-1.239-3.28v-4.772h-1.995v-2.845h1.995V8.977l2.96-.895v3.212h2.592zm3.555-4.221a1.8 1.8 0 0 1-1.812-1.813q0-.734.527-1.284.551-.552 1.285-.551.757 0 1.285.55.55.552.55 1.285 0 .735-.55 1.285-.528.528-1.285.528m-1.468 12.847v-11.47h2.96v11.47z"/></svg>
